X:1
T:Frances O'Rourke's
M:9/8
R:slipjig
Z:robin.beech@mcgill.ca
L:1/8
K:G
dBB dBd BAG | EAA cAB cde | dBB dBc BAG | A2 B ABG FED |
dBB dBc BAG | EAA cAB cde | dBB dBc BAG  E2 G AGF G2 F ::
EBB BcA | BcA Bcd | e2 a abg fed | g2 d cdA BdB | c2 E A2G FED |
E2 B BcA | e2a abg fed | g2d cdA BdB | c2 E A2G FED :|
